src/icons/volume.svg

<svg xmlns="http://www.w3.org/2000/svg" viewBox="0 0 480 512"><path d="M342.91 193.57c-7.81-3.8-17.5-.48-21.34 7.5-3.81 7.97-.44 17.53 7.53 21.34C343.22 229.2 352 242.06 352 256c0 13.94-8.78 26.8-22.9 33.58-7.97 3.81-11.34 13.38-7.53 21.34 3.86 8.05 13.54 11.29 21.34 7.5C368.25 306.28 384 282.36 384 256s-15.75-50.29-41.09-62.43zM231.81 64c-5.91 0-11.92 2.18-16.78 7.05L126.06 160H24c-13.26 0-24 10.74-24 24v144c0 13.25 10.74 24 24 24h102.06l88.97 88.95c4.87 4.87 10.88 7.05 16.78 7.05 12.33 0 24.19-9.52 24.19-24.02V88.02C256 73.51 244.13 64 231.81 64zM224 404.67L139.31 320H32V192h107.31L224 107.33v297.34zm256-148.68c0-66.12-34.02-126.62-88.81-157.87-7.69-4.38-17.59-1.78-22.04 5.89-4.45 7.66-1.77 17.44 5.96 21.86 44.77 25.55 72.61 75.4 72.61 130.12s-27.84 104.58-72.61 130.12c-7.72 4.42-10.4 14.2-5.96 21.86 4.3 7.38 14.06 10.44 22.04 5.89C445.98 382.62 480 322.12 480 255.99z"/></svg>

<?xml version="1.0" encoding="UTF-8" standalone="no"?>
<!DOCTYPE svg PUBLIC "-//W3C//DTD SVG 1.1//EN" "http://www.w3.org/Graphics/SVG/1.1/DTD/svg11.dtd">
<svg width="100%" height="100%" viewBox="0 0 480 512" version="1.1" xmlns="http://www.w3.org/2000/svg" xmlns:xlink="http://www.w3.org/1999/xlink" xml:space="preserve" xmlns:serif="http://www.serif.com/" style="fill-rule:evenodd;clip-rule:evenodd;stroke-linejoin:round;stroke-miterlimit:2;">
    <path d="M342.91,193.57C335.1,189.77 325.41,193.09 321.57,201.07C317.76,209.04 321.13,218.6 329.1,222.41C343.22,229.2 352,242.06 352,256C352,269.94 343.22,282.8 329.1,289.58C321.13,293.39 317.76,302.96 321.57,310.92C325.43,318.97 335.11,322.21 342.91,318.42C368.25,306.28 384,282.36 384,256C384,229.64 368.25,205.71 342.91,193.57ZM231.81,64C225.9,64 219.89,66.18 215.03,71.05L126.06,160L24,160C10.74,160 0,170.74 0,184L0,328C0,341.25 10.74,352 24,352L126.06,352L215.03,440.95C219.9,445.82 225.91,448 231.81,448C244.14,448 256,438.48 256,423.98L256,88.02C256,73.51 244.13,64 231.81,64ZM480,255.99C480,189.87 445.98,129.37 391.19,98.12C383.5,93.74 373.6,96.34 369.15,104.01C364.7,111.67 367.38,121.45 375.11,125.87C419.88,151.42 447.72,201.27 447.72,255.99C447.72,310.71 419.88,360.57 375.11,386.11C367.39,390.53 364.71,400.31 369.15,407.97C373.45,415.35 383.21,418.41 391.19,413.86C445.98,382.62 480,322.12 480,255.99Z" style="fill-rule:nonzero;"/>
</svg>
